images/app-bg.svg

<svg xmlns="http://www.w3.org/2000/svg" xmlns:xlink="http://www.w3.org/1999/xlink" width="999" height="1472" fill="none" xmlns:v="https://vecta.io/nano"><path d="M147.27 826.496c-7.053 26.88-31.768 43.677-31.768 43.677s-13.28-26.782-6.227-53.66 31.77-43.677 31.77-43.677 13.28 26.782 6.226 53.66z" fill="#3f3d56"/><g fill="#6c63ff"><path d="M136.57 820.8c-19.755 19.532-21.965 49.348-21.965 49.348s29.82-1.85 49.574-21.383 21.965-49.347 21.965-49.347-29.82 1.85-49.574 21.382z"/><path d="M161.344 862.303H84.07c-8.476 0-15.347 6.876-15.347 15.358v15.26c0 8.482 6.87 15.358 15.347 15.358h77.274c8.476 0 15.347-6.876 15.347-15.358v-15.26c0-8.482-6.87-15.358-15.347-15.358z"/></g><path opacity=".5" d="M904.307 832.932v-16.567H821.53v76.623a16.15 16.15 0 0 0 1.229 6.182c.81 1.96 2 3.74 3.5 5.24s3.278 2.7 5.236 3.502 4.057 1.23 6.177 1.23h50.493c4.28 0 8.387-1.7 11.414-4.73a16.16 16.16 0 0 0 4.728-11.422v-16.98c5.7-.01 11.164-2.285 15.19-6.323s6.29-9.51 6.29-15.214-2.262-11.177-6.29-15.215-9.49-6.312-15.19-6.323zm0 34.79v-26.507c3.512 0 6.88 1.396 9.364 3.882a13.26 13.26 0 0 1 3.88 9.372c0 3.515-1.396 6.886-3.88 9.37s-5.852 3.882-9.364 3.882z" fill="url(#A)"/><use xlink:href="#D" fill="#6c63ff"/><use xlink:href="#D" opacity=".1" fill="#000"/><path d="M826.065 820.4h75.578v74.856c0 2.613-1.037 5.12-2.884 6.967a9.84 9.84 0 0 1-6.962 2.886H835.91c-2.61 0-5.115-1.038-6.962-2.886a9.86 9.86 0 0 1-2.884-6.967V820.4z" fill="#6c63ff"/><path d="M981 905.108H0v33.278h981v-33.278z" fill="#e0e0e0"/><path opacity=".5" d="M645.257 682.444c-10.514-38.19-70.12-66.08-114.97-72.264l.022-.844v-32.693c.047-.017.096-.032.144-.05v-1.24c15.917-5.924 30.28-15.392 42.004-27.688s20.5-27.097 25.666-43.287a121.1 121.1 0 0 0 7.22-15.578c4.788-1.745 8.404-9.646 8.404-19.14a33.43 33.43 0 0 0-1.351-9.596c.587-4.835.887-9.7.897-14.572.02-17.027-3.54-33.867-10.446-49.43s-17.005-29.495-29.64-40.898a23.71 23.71 0 0 0 .379-5.94c-1.015-15.69-17.762-26.35-33.46-27.064a33.16 33.16 0 0 0 7.861-16.692c.99-6.196.2-12.546-2.275-18.31-10.01 14.592-30.556 16.143-48.242 16.258 7.63-2.958 11.066-13.54 6.627-20.42-18.484 24.793-54.516 29.384-76.5 51.13a64.53 64.53 0 0 0-11.896 16.236 121.51 121.51 0 0 0-33.747 42.331 121.59 121.59 0 0 0-12.018 52.799 122.93 122.93 0 0 0 .881 14.441c-.943 3.155-1.413 6.433-1.394 9.727 0 9.537 3.65 17.462 8.47 19.158a121.1 121.1 0 0 0 7.253 15.63 112.11 112.11 0 0 0 25.503 43.065 111.99 111.99 0 0 0 41.693 27.66v34.16c0 .263.015.522.02.784-45.02 6.078-105.103 34.186-115.524 72.684L313.452 774c40.968 28.807 126.93 45.722 180.804 45.722 51.185 0 134.846-15.267 174.608-41.497-4.307-23.555-14.216-61.67-23.607-95.78z" fill="url(#B)"/><path d="M494.146 810.238c49.377 0 130.082-14.727 168.438-40.03-4.154-22.722-13.713-59.5-22.772-92.395-11.537-41.906-84.35-70.958-127.785-70.958H470.17c-43.57 0-116.488 29.22-127.88 71.305l-22.558 87.973c39.52 27.79 122.445 44.106 174.414 44.106z" fill="#6c63ff"/><path d="M491.597 566.7c64.827 0 117.38-52.59 117.38-117.465S556.424 331.77 491.597 331.77s-117.38 52.59-117.38 117.465S426.77 566.7 491.597 566.7z" fill="#72351c"/><path opacity=".1" d="M453.713 547.074h75.21v60.213a37.65 37.65 0 0 1-11.014 26.611c-7.053 7.057-16.618 11.022-26.592 11.022h0c-9.973 0-19.538-3.965-26.59-11.022a37.65 37.65 0 0 1-11.014-26.611v-60.213z" fill="#000"/><path d="M464.5 544.287h53.635a10.78 10.78 0 0 1 7.628 3.162c2.024 2.024 3.16 4.77 3.16 7.634V604.5a37.65 37.65 0 0 1-11.014 26.61c-7.053 7.058-16.618 11.023-26.592 11.023h0c-9.973 0-19.538-3.965-26.59-11.023a37.65 37.65 0 0 1-11.014-26.61v-49.417a10.8 10.8 0 0 1 3.159-7.634c2.024-2.025 4.768-3.162 7.63-3.162z" fill="#fda57d"/><path opacity=".1" d="M453.852 575.494c24.24 9.063 50.922 9.137 75.21.208v-9.246h-75.21v9.038z" fill="#000"/><path d="M491.597 580.534c59.538 0 107.803-48.3 107.803-107.882s-48.265-107.88-107.803-107.88-107.803 48.3-107.803 107.88 48.265 107.882 107.803 107.882z" fill="#fda57d"/><path opacity=".1" d="M414.81 374.523s45.432 92.288 173.593 38.68l-29.837-46.823-52.89-19-90.865 27.144z" fill="#000"/><g fill="#72351c"><path d="M414.81 373.165s45.432 92.29 173.593 38.68l-29.837-46.823-52.89-19-90.865 27.143z"/><path d="M414.405 366.93c3.062-9.5 8.356-18.107 15.436-25.125 21.208-20.976 55.967-25.405 73.798-49.322 4.28 6.637.97 16.844-6.393 19.697 17.06-.1 36.882-1.607 46.537-15.683a31.99 31.99 0 0 1 2.195 17.664c-.954 5.978-3.583 11.56-7.583 16.102 15.142.688 31.298 10.97 32.276 26.108.652 10.084-5.666 19.632-13.947 25.415s-18.3 8.438-28.16 10.614c-28.786 6.35-132.942 32.972-114.16-25.47zm184.992 106.667h-2.858l-55.604 49.537c-53.57-25.108-92.9 0-92.9 0l-58.316-47.502-5.88.74a107.96 107.96 0 0 0 33.11 74.792 107.76 107.76 0 0 0 76.033 30.04c28.303-.365 55.326-11.854 75.236-31.987a107.92 107.92 0 0 0 31.178-75.62zm-107.963 68.537c-20.973 0-37.974-4.253-37.974-9.5s17-9.5 37.974-9.5 37.973 4.253 37.973 9.5-17 9.5-37.973 9.5z"/></g><path d="M383.75 491.366c5.538 0 10.028-8.424 10.028-18.816s-4.5-18.817-10.028-18.817-10.028 8.425-10.028 18.817 4.5 18.816 10.028 18.816zm215.636 0c5.538 0 10.028-8.424 10.028-18.816s-4.5-18.817-10.028-18.817-10.028 8.425-10.028 18.817 4.5 18.816 10.028 18.816z" fill="#fda57d"/><path opacity=".5" d="M684.452 664.698H296.548c-8.087 0-14.643 6.56-14.643 14.654v211.103c0 8.092 6.556 14.653 14.643 14.653h387.904c8.087 0 14.643-6.56 14.643-14.653V679.352c0-8.093-6.556-14.654-14.643-14.654z" fill="url(#C)"/><path d="M664.438 669.134H316.562c-14.966 0-27.1 12.14-27.1 27.12V877.99c0 14.977 12.133 27.12 27.1 27.12h347.876c14.966 0 27.1-12.142 27.1-27.12V696.253c0-14.978-12.133-27.12-27.1-27.12z" fill="#535461"/><path d="M490.5 800.735c7.513 0 13.604-6.096 13.604-13.614s-6.09-13.614-13.604-13.614-13.604 6.095-13.604 13.614 6.09 13.614 13.604 13.614z" fill="#fff"/><path d="M939.432 938.386H41.568V952h897.864v-13.614z" fill="#e0e0e0"/><path opacity=".1" d="M939.432 938.386H41.568v4.538h897.864v-4.538zM888.04 820.4v69.96c0 3.912-1.552 7.663-4.316 10.43a14.73 14.73 0 0 1-10.42 4.32h7.557a14.73 14.73 0 0 0 10.422-4.32c2.764-2.766 4.316-6.517 4.316-10.43V820.4h-7.558z" fill="#000"/><path d="M840.98 764.013c-1.275.218-2.713.562-3.338 1.695-.99 1.8.805 3.827 2.445 5.062 3.028 2.284 6.22 4.526 8.28 7.713s2.706 7.634.455 10.688c-2.938 3.988-9.95 4.845-10.627 9.753-.436 3.15 2.286 5.84 5.044 7.42 6.808 3.902 15.584 4.944 20.515 11.05 2.04-4.197 6.603-6.624 11.15-7.66s9.273-.96 13.884-1.662c1.49-.227 3.166-.682 3.83-2.033 1.29-2.618-2.384-5.758-1.116-8.386.965-2 3.8-1.845 5.87-2.646 3.37-1.305 4.76-5.646 3.804-9.134s-3.66-6.213-6.5-8.448c-7.66-6.022-16.868-9.564-26.182-12.112-4.332-1.185-9.418-3.043-13.917-3.222-4.344-.174-9.298 1.185-13.597 1.92z" fill="#eee"/><defs><linearGradient id="A" x1="873.679" y1="909.141" x2="873.679" y2="816.365" gradientUnits="userSpaceOnUse"><stop stop-color="gray" stop-opacity=".25"/><stop offset=".535" stop-color="gray" stop-opacity=".12"/><stop offset="1" stop-color="gray" stop-opacity=".1"/></linearGradient><linearGradient id="B" x1="213792" y1="349208" x2="213792" y2="64152.8" gradientUnits="userSpaceOnUse"><stop stop-color="gray" stop-opacity=".25"/><stop offset=".535" stop-color="gray" stop-opacity=".12"/><stop offset="1" stop-color="gray" stop-opacity=".1"/></linearGradient><linearGradient id="C" x1="202919" y1="148660" x2="202919" y2="91468.4" gradientUnits="userSpaceOnUse"><stop stop-color="gray" stop-opacity=".25"/><stop offset=".535" stop-color="gray" stop-opacity=".12"/><stop offset="1" stop-color="gray" stop-opacity=".1"/></linearGradient><path id="D" d="M901.643 835.525a19.65 19.65 0 0 0-10.917 3.314 19.66 19.66 0 0 0-7.237 8.826c-1.488 3.593-1.877 7.547-1.118 11.36s2.63 7.32 5.377 10.07 6.25 4.623 10.062 5.382 7.763.37 11.353-1.12 6.66-4.01 8.82-7.243a19.68 19.68 0 0 0 3.312-10.925c0-5.215-2.07-10.217-5.756-13.905a19.64 19.64 0 0 0-13.895-5.76zm0 31.766c-2.39 0-4.73-.7-6.718-2.04s-3.538-3.22-4.454-5.43-1.154-4.645-.688-6.992a12.1 12.1 0 0 1 3.31-6.196 12.09 12.09 0 0 1 6.191-3.312c2.346-.467 4.777-.227 6.987.69a12.1 12.1 0 0 1 5.427 4.457c1.33 2 2.038 4.33 2.038 6.723 0 3.21-1.274 6.287-3.542 8.557a12.09 12.09 0 0 1-8.551 3.544z"/></defs></svg>

<svg width="999" height="1472" viewBox="0 0 999 1472" fill="none" xmlns="http://www.w3.org/2000/svg">
<path d="M147.269 826.496C140.216 853.375 115.501 870.173 115.501 870.173C115.501 870.173 102.221 843.391 109.274 816.512C116.327 789.632 141.043 772.835 141.043 772.835C141.043 772.835 154.322 799.617 147.269 826.496Z" fill="#3F3D56"/>
<path d="M136.571 820.81C116.816 840.342 114.606 870.158 114.606 870.158C114.606 870.158 144.425 868.307 164.18 848.775C183.935 829.244 186.145 799.428 186.145 799.428C186.145 799.428 156.326 801.279 136.571 820.81Z" fill="#6C63FF"/>
<path d="M161.344 862.303H84.0702C75.5943 862.303 68.7231 869.179 68.7231 877.661V892.922C68.7231 901.404 75.5943 908.28 84.0702 908.28H161.344C169.82 908.28 176.691 901.404 176.691 892.922V877.661C176.691 869.179 169.82 862.303 161.344 862.303Z" fill="#6C63FF"/>
<g opacity="0.7">
<path opacity="0.7" d="M904.307 832.932V816.365H821.531V892.988C821.531 895.11 821.948 897.21 822.76 899.17C823.571 901.13 824.76 902.91 826.259 904.41C827.757 905.91 829.537 907.1 831.495 907.912C833.453 908.724 835.552 909.141 837.672 909.141H888.165C892.446 909.141 896.552 907.44 899.579 904.41C902.606 901.381 904.307 897.272 904.307 892.988V876.007C910.007 875.996 915.471 873.722 919.498 869.684C923.525 865.646 925.787 860.175 925.787 854.47C925.787 848.765 923.525 843.293 919.498 839.255C915.471 835.217 910.007 832.943 904.307 832.932ZM904.307 867.723V841.216C907.819 841.216 911.188 842.612 913.671 845.098C916.155 847.583 917.551 850.955 917.551 854.47C917.551 857.985 916.155 861.356 913.671 863.841C911.188 866.327 907.819 867.723 904.307 867.723Z" fill="url(#paint0_linear)"/>
</g>
<path d="M901.643 835.525C897.757 835.525 893.958 836.679 890.726 838.839C887.495 841 884.976 844.071 883.489 847.665C882.001 851.258 881.612 855.212 882.371 859.026C883.129 862.841 885 866.345 887.748 869.095C890.497 871.845 893.998 873.718 897.81 874.477C901.621 875.235 905.573 874.846 909.163 873.358C912.754 871.869 915.823 869.349 917.982 866.115C920.141 862.881 921.294 859.079 921.294 855.19C921.294 849.975 919.223 844.973 915.538 841.285C911.853 837.597 906.855 835.525 901.643 835.525ZM901.643 867.291C899.252 867.291 896.914 866.581 894.925 865.252C892.936 863.922 891.387 862.032 890.471 859.821C889.556 857.61 889.317 855.176 889.783 852.829C890.25 850.482 891.401 848.325 893.093 846.633C894.784 844.941 896.938 843.788 899.284 843.321C901.63 842.854 904.061 843.094 906.271 844.01C908.48 844.926 910.369 846.477 911.698 848.467C913.027 850.457 913.736 852.797 913.736 855.19C913.736 858.399 912.462 861.477 910.194 863.747C907.926 866.016 904.85 867.291 901.643 867.291Z" fill="#6C63FF"/>
<path opacity="0.1" d="M901.643 835.525C897.757 835.525 893.958 836.679 890.726 838.839C887.495 841 884.976 844.071 883.489 847.665C882.001 851.258 881.612 855.212 882.371 859.026C883.129 862.841 885 866.345 887.748 869.095C890.497 871.845 893.998 873.718 897.81 874.477C901.621 875.235 905.573 874.846 909.163 873.358C912.754 871.869 915.823 869.349 917.982 866.115C920.141 862.881 921.294 859.079 921.294 855.19C921.294 849.975 919.223 844.973 915.538 841.285C911.853 837.597 906.855 835.525 901.643 835.525ZM901.643 867.291C899.252 867.291 896.914 866.581 894.925 865.252C892.936 863.922 891.387 862.032 890.471 859.821C889.556 857.61 889.317 855.176 889.783 852.829C890.25 850.482 891.401 848.325 893.093 846.633C894.784 844.941 896.938 843.788 899.284 843.321C901.63 842.854 904.061 843.094 906.271 844.01C908.48 844.926 910.369 846.477 911.698 848.467C913.027 850.457 913.736 852.797 913.736 855.19C913.736 858.399 912.462 861.477 910.194 863.747C907.926 866.016 904.85 867.291 901.643 867.291Z" fill="black"/>
<path d="M826.065 820.399H901.643V895.255C901.643 897.868 900.606 900.374 898.759 902.222C896.913 904.07 894.409 905.108 891.797 905.108H835.911C833.3 905.108 830.796 904.07 828.949 902.222C827.103 900.374 826.065 897.868 826.065 895.255V820.399Z" fill="#6C63FF"/>
<path d="M981 905.108H0V938.386H981V905.108Z" fill="#E0E0E0"/>
<g opacity="0.7">
<path opacity="0.7" d="M645.257 682.444C634.743 644.253 575.136 616.364 530.286 610.18C530.292 609.898 530.308 609.619 530.308 609.336V576.643C530.355 576.626 530.404 576.611 530.452 576.594V575.355C546.369 569.431 560.732 559.963 572.456 547.667C584.179 535.371 592.956 520.57 598.122 504.38C600.894 499.365 603.307 494.159 605.342 488.802C610.13 487.057 613.746 479.156 613.746 469.663C613.764 466.415 613.309 463.183 612.395 460.067C612.982 455.232 613.282 450.366 613.292 445.495C613.311 428.468 609.752 411.628 602.846 396.066C595.94 380.505 585.841 366.571 573.205 355.168C573.58 353.212 573.708 351.216 573.584 349.228C572.569 333.537 555.822 322.877 540.125 322.164C544.271 317.457 546.997 311.669 547.986 305.472C548.975 299.276 548.186 292.926 545.711 287.161C535.702 301.753 515.155 303.304 497.469 303.419C505.1 300.461 508.535 289.88 504.096 283C485.612 307.793 449.58 312.384 427.595 334.129C422.805 338.885 418.791 344.364 415.699 350.365C401.412 361.756 389.876 376.225 381.952 392.696C374.029 409.167 369.92 427.215 369.934 445.495C369.944 450.322 370.238 455.144 370.815 459.936C369.872 463.091 369.402 466.369 369.421 469.663C369.421 479.2 373.071 487.125 377.892 488.821C379.936 494.197 382.359 499.42 385.145 504.451C390.293 520.546 399.012 535.269 410.648 547.516C422.284 559.764 436.537 569.219 452.341 575.176V609.336C452.341 609.599 452.356 609.858 452.361 610.12C407.341 616.198 347.258 644.306 336.837 682.804C327.838 716.051 318.232 752.562 313.452 773.999C354.42 802.806 440.383 819.721 494.256 819.721C545.441 819.721 629.102 804.454 668.864 778.224C664.557 754.669 654.648 716.554 645.257 682.444Z" fill="url(#paint1_linear)"/>
</g>
<path d="M494.146 810.238C543.523 810.238 624.228 795.511 662.584 770.207C658.43 747.485 648.871 710.717 639.812 677.812C628.275 635.906 555.462 606.854 512.027 606.854H470.17C426.6 606.854 353.682 636.074 342.29 678.159C333.609 710.231 324.343 745.453 319.732 766.132C359.252 793.921 442.177 810.238 494.146 810.238Z" fill="#6C63FF"/>
<path d="M491.597 566.701C556.424 566.701 608.977 514.11 608.977 449.236C608.977 384.362 556.424 331.771 491.597 331.771C426.77 331.771 374.217 384.362 374.217 449.236C374.217 514.11 426.77 566.701 491.597 566.701Z" fill="#72351C"/>
<path opacity="0.1" d="M453.713 547.074H528.924V607.287C528.924 617.268 524.962 626.84 517.91 633.898C510.857 640.955 501.292 644.92 491.318 644.92H491.318C481.345 644.92 471.78 640.955 464.727 633.898C457.675 626.84 453.713 617.268 453.713 607.287V547.074H453.713Z" fill="black"/>
<path d="M464.501 544.287H518.136C520.997 544.287 523.741 545.424 525.764 547.449C527.788 549.473 528.924 552.219 528.924 555.083V604.5C528.924 614.48 524.962 624.053 517.91 631.11C510.857 638.168 501.292 642.133 491.318 642.133H491.318C481.345 642.133 471.78 638.168 464.727 631.11C457.675 624.053 453.713 614.48 453.713 604.5V555.083C453.713 552.219 454.849 549.473 456.872 547.449C458.896 545.424 461.64 544.287 464.501 544.287Z" fill="#FDA57D"/>
<path opacity="0.1" d="M453.852 575.494C478.092 584.557 504.774 584.631 529.063 575.702V566.456H453.852V575.494Z" fill="black"/>
<path d="M491.597 580.534C551.135 580.534 599.4 532.234 599.4 472.652C599.4 413.071 551.135 364.771 491.597 364.771C432.059 364.771 383.794 413.071 383.794 472.652C383.794 532.234 432.059 580.534 491.597 580.534Z" fill="#FDA57D"/>
<path opacity="0.1" d="M414.809 374.523C414.809 374.523 460.241 466.811 588.402 413.202L558.565 366.379L505.674 347.379L414.809 374.523Z" fill="black"/>
<path d="M414.809 373.165C414.809 373.165 460.241 465.454 588.402 411.845L558.565 365.022L505.674 346.022L414.809 373.165Z" fill="#72351C"/>
<path d="M414.405 366.93C417.467 357.44 422.761 348.823 429.841 341.805C451.049 320.829 485.808 316.4 503.639 292.483C507.92 299.12 504.608 309.327 497.246 312.18C514.307 312.07 534.128 310.573 543.783 296.497C546.171 302.058 546.932 308.184 545.978 314.161C545.024 320.139 542.395 325.722 538.395 330.263C553.537 330.951 569.693 341.234 570.671 356.371C571.323 366.455 565.005 376.003 556.724 381.786C548.443 387.57 538.425 390.224 528.564 392.4C499.778 398.751 395.622 425.372 414.405 366.93Z" fill="#72351C"/>
<path d="M599.397 473.597H596.539L540.935 523.134C487.365 498.026 448.035 523.134 448.035 523.134L389.719 475.632L383.839 476.372C384.636 504.686 396.529 531.55 416.95 551.164C437.371 570.778 464.681 581.568 492.983 581.204C521.286 580.839 548.309 569.35 568.219 549.217C588.129 529.084 599.328 501.922 599.397 473.597ZM491.434 542.134C470.461 542.134 453.46 537.881 453.46 532.634C453.46 527.387 470.461 523.134 491.434 523.134C512.406 523.134 529.407 527.387 529.407 532.634C529.407 537.881 512.406 542.134 491.434 542.134Z" fill="#72351C"/>
<path d="M383.751 491.366C389.289 491.366 393.779 482.942 393.779 472.55C393.779 462.158 389.289 453.733 383.751 453.733C378.212 453.733 373.723 462.158 373.723 472.55C373.723 482.942 378.212 491.366 383.751 491.366Z" fill="#FDA57D"/>
<path d="M599.386 491.366C604.924 491.366 609.414 482.942 609.414 472.55C609.414 462.158 604.924 453.733 599.386 453.733C593.848 453.733 589.358 462.158 589.358 472.55C589.358 482.942 593.848 491.366 599.386 491.366Z" fill="#FDA57D"/>
<g opacity="0.7">
<path opacity="0.7" d="M684.452 664.698H296.548C288.461 664.698 281.905 671.259 281.905 679.352V890.455C281.905 898.547 288.461 905.108 296.548 905.108H684.452C692.539 905.108 699.095 898.547 699.095 890.455V679.352C699.095 671.259 692.539 664.698 684.452 664.698Z" fill="url(#paint2_linear)"/>
</g>
<path d="M664.438 669.134H316.562C301.596 669.134 289.463 681.275 289.463 696.253V877.989C289.463 892.966 301.596 905.108 316.562 905.108H664.438C679.404 905.108 691.537 892.966 691.537 877.989V696.253C691.537 681.275 679.404 669.134 664.438 669.134Z" fill="#535461"/>
<path d="M490.5 800.735C498.013 800.735 504.104 794.639 504.104 787.121C504.104 779.602 498.013 773.507 490.5 773.507C482.987 773.507 476.896 779.602 476.896 787.121C476.896 794.639 482.987 800.735 490.5 800.735Z" fill="white"/>
<path d="M939.432 938.386H41.5678V952H939.432V938.386Z" fill="#E0E0E0"/>
<path opacity="0.1" d="M939.432 938.386H41.5678V942.924H939.432V938.386Z" fill="black"/>
<path opacity="0.1" d="M888.039 820.399V890.359C888.039 894.271 886.487 898.022 883.723 900.788C880.959 903.554 877.21 905.108 873.302 905.108H880.859C884.768 905.108 888.517 903.554 891.281 900.788C894.044 898.022 895.597 894.271 895.597 890.359V820.399H888.039Z" fill="black"/>
<path d="M840.98 764.013C839.705 764.231 838.267 764.575 837.642 765.708C836.651 767.507 838.447 769.535 840.087 770.77C843.115 773.054 846.308 775.296 848.366 778.483C850.425 781.67 851.072 786.117 848.821 789.171C845.883 793.159 838.872 794.016 838.194 798.924C837.758 802.075 840.48 804.764 843.238 806.345C850.046 810.247 858.822 811.289 863.753 817.395C865.793 813.198 870.356 810.771 874.904 809.735C879.452 808.699 884.177 808.776 888.788 808.073C890.277 807.846 891.954 807.391 892.619 806.04C893.908 803.422 890.235 800.282 891.503 797.654C892.468 795.654 895.303 795.809 897.373 795.008C900.744 793.703 902.134 789.362 901.177 785.874C900.22 782.387 897.518 779.661 894.676 777.426C887.017 771.404 877.808 767.862 868.494 765.314C864.162 764.129 859.076 762.271 854.577 762.092C850.233 761.918 845.279 763.277 840.98 764.013Z" fill="#EEEEEE"/>
<defs>
<linearGradient id="paint0_linear" x1="873.679" y1="909.141" x2="873.679" y2="816.365" gradientUnits="userSpaceOnUse">
<stop stop-color="#808080" stop-opacity="0.25"/>
<stop offset="0.53514" stop-color="#808080" stop-opacity="0.12"/>
<stop offset="1" stop-color="#808080" stop-opacity="0.1"/>
</linearGradient>
<linearGradient id="paint1_linear" x1="213792" y1="349208" x2="213792" y2="64152.8" gradientUnits="userSpaceOnUse">
<stop stop-color="#808080" stop-opacity="0.25"/>
<stop offset="0.53514" stop-color="#808080" stop-opacity="0.12"/>
<stop offset="1" stop-color="#808080" stop-opacity="0.1"/>
</linearGradient>
<linearGradient id="paint2_linear" x1="202919" y1="148660" x2="202919" y2="91468.4" gradientUnits="userSpaceOnUse">
<stop stop-color="#808080" stop-opacity="0.25"/>
<stop offset="0.53514" stop-color="#808080" stop-opacity="0.12"/>
<stop offset="1" stop-color="#808080" stop-opacity="0.1"/>
</linearGradient>
</defs>
</svg>
